X:1
T:Title
%%score ( 1 2 ) { 3 | 4 }
L:1/8
Q:1/4=103
M:4/4
K:Ab
V:1 treble nm="Drawbar Organ, Soprano"
V:2 treble 
V:3 bass nm="Church Organ, He Who Safely Keepeth"
V:4 bass 
V:1
 [CE]2 [CA]2 [CA]2 [EA]2 | [DA]4 [DG]4 | E2 [Ed]2 [Ed]2 [Ed]2 | [Fd]4 [Ec]4 | %4
w: By~Ira~David~Sankey * * *||||
 [DF]2 [DF]2 [DA]2 [DA]2 | [CE]2 [CE]2 [EA]2 [Ec]2 | [=Dc]2 [DB]2 [DF]2 [DB]2 | B6 z2 | %8
w: ||||
 [CE]2 [CA]2 [EA]2 [CA]2 | [DA]4 [DG]4 | E2 [Ed]2 [Ed]2 [Ed]2 | [Fd]4 [Ec]4 | %12
w: ||||
 [Ec]2 [_Ge]2 [Ge]2 [Fe]2 | [Fe]2 [Fd]2 [DF]2 [FB]2 | [EA]4 [DG]4 | [CA]8 |] %16
w: ||||
V:2
 x8 | x8 | x8 | x8 | x8 | x8 | x8 | E4 D4 | x8 | x8 | x8 | x8 | x8 | x8 | x8 | x8 |] %16
V:3
 A,2 A,2 A,2 A,2 | B,4 B,4 | G,2 G,2 A,2 B,2 | A,4 A,4 | A,2 A,2 A,2 A,2 | A,2 A,2 A,2 A,2 | %6
 F,2 B,2 B,2 A,2 | G,8 | A,2 A,2 A,2 A,2 | B,4 B,4 | G,2 G,2 A,2 B,2 | A,4 A,4 | %12
 A,2[K:treble] C2 C2 C2 | B,2 B,2[K:bass] B,2 D2 | C4 B,4 | A,8 |] %16
V:4
 A,,2 A,,2 A,,2 C,2 | E,4 E,4 | E,2 E,2 F,2 G,2 | z8 | D,2 D,2 F,2 F,2 | z2 E,2 C,2 A,,2 | %6
 B,,2 B,,2 B,,2 B,,2 | E,8 | z2 E,2 C,2 A,,2 | E,4 E,4 | E,2 E,2 F,2 G,2 | z8 | z2 A,2 =A,2 A,2 | %13
 z4 B,,2 B,,2 | E,4 E,4 | A,,8 |] %16

